modules/themify-icons/icons/briefcase.svg

<?xml version="1.0" encoding="utf-8"?>
<!-- Generated by IcoMoon.io -->
<!DOCTYPE svg PUBLIC "-//W3C//DTD SVG 1.1//EN" "http://www.w3.org/Graphics/SVG/1.1/DTD/svg11.dtd">
<svg version="1.1" xmlns="http://www.w3.org/2000/svg" xmlns:xlink="http://www.w3.org/1999/xlink" width="17" height="17" viewBox="0 0 17 17">
<g>
</g>
	<path d="M7 13v-1.5h1v0.5h1v-0.5h1v1.5h-3zM17 11h-1v6h-15v-6h-1v-8h3.616c0.938-1.83 2.805-3 4.884-3s3.947 1.171 4.884 3h3.616v8zM4.769 3h7.464c-0.825-1.233-2.21-2-3.732-2s-2.907 0.768-3.732 2zM15 11h-13v5h13v-5zM16 4h-15v6h15v-6z" fill="#000000" />
</svg>

<svg xmlns="http://www.w3.org/2000/svg" width="17" height="17"><path d="M7 13v-1.5h1v.5h1v-.5h1V13H7zm10-2h-1v6H1v-6H0V3h3.616C4.554 1.17 6.421 0 8.5 0s3.947 1.171 4.884 3H17v8zM4.769 3h7.464c-.825-1.233-2.21-2-3.732-2s-2.907.768-3.732 2zM15 11H2v5h13v-5zm1-7H1v6h15V4z"/></svg>
